X:1
T:Fa Una Canzona
T:Fa Una Canzona
T:Orazio Vecchi (1550-1605)
%%score [ 1 2 3 4 ]
L:1/8
M:2/2
K:Bb
V:1 treble nm="Soprano"
V:2 treble nm="Alto"
V:3 treble-8 nm="Tenor"
V:4 bass nm="Bass"
V:1
 d4 c2 B2 | A4 B2 A2- | A2 A2 B2 B2 | A4 B4 | d4 d2 d2 | ^c4 d2 =B2- | B2 c2 c2 e2 | d4 =B4 |: %8
w: 1.Fa~u- na can-|zo- na sen-|* za no- te|ne- re,|Se mai bra-|ma- sti la|_ mia gra- zia~ha-|ve- re.|
w: 2.Per en- tro|non vi spar-|* ge- re du-|rez- ze,|Che le mie~o-|re- cchie non|_ vi so- no~a-|vez- ze.|
w: 3.Ne vi far|ci- fra~ò se-|* gno con- tra|se- gno,|So- pra~o- gna|co- sa ques'|_ è'l mio di-|se- gno.|
w: 4.Con ques- to|sti- le~il for-|* tu- na- to~Or-|fe- o|Pro- ser- pi-|na la giù|_ pla- car po-|te- o.|
w: 5.Ques- to~è lo|sti- le che|_ que- ta già|fe- o|Con dol- cez-|za à Saul|_ lo spir- to|re- o.|
"^Refreng" z8 | z8 | z8 | z8 | B6 c2 | A6 A2 | B6 B2 | A4 A2 A2 | G4 F2 F2- | F2 E2 D4 | D8 |] %19
w: ||||Do- ce-|men- te,|dol- ce-|men- te fa-|cen- do- la|_ fi- ni-|re.|
w: |||||||||||
w: |||||||||||
w: |||||||||||
w: |||||||||||
V:2
 B4 A2 G2 | ^F4 G2 C2- | C2 D2 =F2 F2 | F4 F4 | B4 B2 B2 | A4 A2 G2- | G2 G2 G2 G2 | ^F4 G4 |: %8
w: 1.Fa~u- na can-|zo- na sen-|* za no- te|ne- re,|Se mai bra-|ma- sti la|_ mia gra- zia~ha-|ve- re.|
w: 2.Per en- tro|non vi spar-|* ge- re du-|rez- ze,|Che le mie~o-|re- cchie non|_ vi so- no~a-|vez- ze.|
w: 3.Ne vi far|ci- fra~ò se-|* gno con- tra|se- gno,|So- pra~o- gna|co- sa ques'|_ è'l mio di-|se- gno.|
w: 4.Con ques- to|sti- le~il for-|* tu- na- to~Or-|fe- o|Pro- ser- pi-|na la giù|_ pla- car po-|te- o.|
w: 5.Ques- to~è lo|sti- le che|_ que- ta già|fe- o|Con dol- cez-|za à Saul|_ lo spir- to|re- o.|
 D4 D2 D2 | B,4 B,2 B,2 | B,4 B,2 B,2 | C4 D4 | G6 G2 | ^F6 F2 | z2 =F4 G2 | =E4 E2 F2 | %16
w: Fa- fa d'un|tuo- nó ch'in-|vi- ta~al dor-|mi- re,|Do- ce-|men- te,|dol- ce-|men- te fa-|
w: ||||||||
w: ||||||||
w: ||||||||
w: ||||||||
 _E4 D2 D2- | D2 C2 A,4 | =B,8 |] %19
w: cen- do- la|_ fi- ni-|re.|
w: |||
w: |||
w: |||
w: |||
V:3
 f4 f2 d2 | d4 d2 f2- | f2 f2 d2 d2 | c4 d4 | f4 f2 g2 | =e4 f2 d2- | d2 _e2 c2 B2 | A4 G4 |: %8
w: 1.Fa~u- na can-|zo- na sen-|* za no- te|ne- re,|Se mai bra-|ma- sti la|_ mia gra- zia~ha-|ve- re.|
w: 2.Per en- tro|non vi spar-|* ge- re du-|rez- ze,|Che le mie~o-|re- cchie non|_ vi so- no~a-|vez- ze.|
w: 3.Ne vi far|ci- fra~ò se-|* gno con- tra|se- gno,|So- pra~o- gna|co- sa ques'|_ è'l mio di-|se- gno.|
w: 4.Con ques- to|sti- le~il for-|* tu- na- to~Or-|fe- o|Pro- ser- pi-|na la giù|_ pla- car po-|te- o.|
w: 5.Ques- to~è lo|sti- le che|_ que- ta già|fe- o|Con dol- cez-|za à Saul|_ lo spir- to|re- o.|
 F4 F2 F2 | G4 G2 G2 | G4 G2 B2 | A4 B4 | e6 c2 | d6 d2 | d6 d2 | ^c4 c2 d2 | B4 B2 B2- | %17
w: Fa- fa d'un|tuo- nó ch'in-|vi- ta~al dor-|mi- re,|Do- ce-|men- te,|dol- ce-|men- te fa-|cen- do- la|
w: |||||||||
w: |||||||||
w: |||||||||
w: |||||||||
 B2 G2 ^F4 | G8 |] %19
w: _ fi- ni-|re.|
w: ||
w: ||
w: ||
w: ||
V:4
 B,4 F,2 G,2 | D,4 G,2 F,2- | F,2 D,2 B,,2 B,,2 | F,4 B,,4 | B,4 B,2 G,2 | A,4 D,2 G,2- | %6
w: 1.Fa~u- na can-|zo- na sen-|* za no- te|ne- re,|Se mai bra-|ma- sti la|
w: 2.Per en- tro|non vi spar-|* ge- re du-|rez- ze,|Che le mie~o-|re- cchie non|
w: 3.Ne vi far|ci- fra~ò se-|* gno con- tra|se- gno,|So- pra~o- gna|co- sa ques'|
w: 4.Con ques- to|sti- le~il for-|* tu- na- to~Or-|fe- o|Pro- ser- pi-|na la giù|
w: 5.Ques- to~è lo|sti- le che|_ que- ta già|fe- o|Con dol- cez-|za à Saul|
 G,2 C,2 C,2 G,2 | D,4 G,,4 |: B,,4 B,,2 B,,2 | E,4 E,2 E,2 | E,4 E,2 G,2 | F,4 B,,4 | z8 | z8 | %14
w: _ mia gra- zia~ha-|ve- re.|Fa- fa d'un|tuo- nó ch'in-|vi- ta~al dor-|mi- re,|||
w: _ vi so- no~a-|vez- ze.|||||||
w: _ è'l mio di-|se- gno.|||||||
w: _ pla- car po-|te- o.|||||||
w: _ lo spir- to|re- o.|||||||
 B,6 G,2 | A,4 A,2 D,2 | E,4 B,,2 B,,2- | B,,2 C,2 D,4 | G,,8 |] %19
w: dol- ce-|men- te fa-|cen- do- la|_ fi- ni-|re.|
w: |||||
w: |||||
w: |||||
w: |||||

